X:1
T:Non fia giamai
T:Non fia giamai
T:Jhan Gero
T:Source : Trium vocum cantiones---Nûrnberg---J.Petreius---1541. Editor : André Vierendeels (22/09/16).
T:Notes : Original clefs : C3, C4, F4 Editorial accidentals above the staff Original note values have been halved Square bracket indicates ligature
T:-natural
T:©
T:©
T:©
T:©
T:©
C:Jhan Gero
Z:©
%%score [ 1 2 3 ]
L:1/8
Q:1/4=129
M:2/2
K:F
V:1 treble-8 nm="Tenor 1" snm="T 1"
V:2 treble-8 nm="Tenor 2" snm="T 2"
V:3 bass nm="Bass" snm="B"
V:1
 c4 d2 d2 | e2 e2 c3 B | c2 d3 c c2- | c2 B2 cdef | g2 a3 gfe | fedc d4 | c4 z2 c2 | c2 A2 F2 F2 | %8
w: Non fia gia-|mai in quest' o|in altr' e- ta-||||de, ma-|donn' i piu be-|
 B4 G4 |"^-natural" c3 d ef g2- | gf f4 e2 | f4 c4 | c2 A2 F2 F2 | B4 G4 |"^-natural" c3 d ef g2- | %15
w: gli'oc- chi'o|piu _ _ _ bel|_ _ vol- *|to, dil|ve- stro qual da-|me l'alm'|ha _ _ _ di-|
 gf f4 e2 | f4 z2 e2 | e2 e2 f2 d2 | e2 e2 z2 e2 | e2 e2 f2 d2 | e4 c4- | c4 z4 | z4 e4- | %23
w: * * sciiol- *|to, et|s'un po- co tem-|pra- te, quel-|la dolc' e sde-|* gno,|_|di|
 e4 f3 e | d2 d2 c2 A2 | B2 c2 d4 | e4 c4 | z2 f2 e2 d2 | c3 B A4 | a4 g2 f2- | f2 e2 f4- | f4 f4 | %32
w: _ vo- str'al-|me vir- tud' e|gen- til- lez-|* za,|don- na non|fia gia- mai|che giong' al|_ se- gno,|_ et|
 e2 g2 f2 f2 | g4 c2 fe | dc d3 c c2- |"^-natural" c2 B2 c4 | F4 F2 G2 | A2 B2 c2 d2 | e2 f2 g4 | %39
w: io quan- ton- qu'in-|de- * * *||* * gno:|por- ro le|vo- * stre lod'|in s'al in|
 d3 e f4 | z2 f2 f4- | f2 e2 d2 c2 | B2 A2 GF f2- | f2 e2 f4- | f8 | f4 f3 e | d2 c2 B2 A2 | %47
w: sta- * to,|ch'au- gel|_ non gion- ge-|ra col suo vo- la-|* * to,|_|ch'au- gel non|gion- ge- ra col|
 GF f4 e2 | f8 |] %49
w: suo vo- la- *|to.|
V:2
 z8 | z8 | z4 c4 | d2 d2 e2 e2 | c3 B c2 d2- |"^-natural" dc c4 B2 | c8 | z4 f4 | f2 d2 B2 B2 | %9
w: ||Non|fia gia- mai in|quest' o in altr'|_ e ta- *|de,|ma-|donn' i piu be-|
 _e3 d c2 B2 | A2 B2 G4 | F8 | z4 f4 | f2 d2 B2 B2 | _e3 d c2 B2 | A2 B2 G4 | F4 z2 c2 | %17
w: gli'oc- chi, o piu|bel _ vol-|to,|dil|vo- stro qual da-|me l'al- m'ha di-|sciol- * *|to, et|
"^-natural" c2 c2 A2 B2 | c2 c2 z2 c2 | c2 c2 A2 B2 | c4 A4- | A4 B4- | B4 c3 B | A2 G2 F4 | %24
w: s'un po- co tem-|pra- te, quel-|la dolc' i- ra|sde- gno,|_ di|_ vo- str'al|me vir- tud'|
 f4 f3 e |"^-natural" d2 c4 B2 | c4 A4 | G2 F2 G2 G2 | G4 c4 | c2 c2 BAGF | G4 F4 | c4 B2 d2 | %32
w: e gen- til-|lez- * *|za,- don-|na non fia gia-|mai che|giong' al se- * * *|* gno,|et io quan-|
 c6 c2 | B4 AB c2- | c2 B2 c4 | z2 F2 G2 G2 | A3 B c4- | c4 F4 | z2 F2 c2 c2 | B4 A2 F2 | %40
w: ton- qu'in-|de- * * *|* * gno:|por- ro vo-|* stre lo-|* de|in s'al- to|sta- to, ch'au-|
 c3 B A2 G2 | F4 z2 F2 | G2 A2 B3 A | G4 F4 | z2 c2 c3 B | A2 G2 F4 | z2 F2 G2 A2 | B3 A G4 | F8 |] %49
w: gel non gion- ge-|ra col|suo vo- la- *|* to,|ch'au- gel non|gion- ge- ra|col suo vo-|la- * *|to.|
V:3
 z4 F,4 | G,2 G,2 A,2 A,2 | F,2 D,2 E,2 F,2 | D,4 C,2 C2- | CB,A,G, F,2 B,2- | B,2 A,2 G,4 | C,8 | %7
w: Non|fia gia- mai in|quest' o in altr'|e- ta- *|||de,|
 F,4 F,2 D,2 | B,,2 B,,2 _E,4 | C,8 | D,2 B,,2 C,4 | D,3 E, F,4 | F,4 F,2 D,2 | B,,2 B,,2 _E,4 | %14
w: Ma- don- n'i|piu be- gli'oc-|chi'o|piu bel vol-|to dil _|_ _ _|* * me|
 C,8 | D,2 B,,2 C,4 | F,,4 C,4 | C,2 C,2 D,2 D,2 | C,2 C,2 z2 C,2 | C,2 C,2 D,2 D,2 | %20
w: l'al-|m'ha di- sciol-|to, et|s'un po- co tem-|pra- te, quel-|la dol- cez- z'e|
 C,2 C,2 F,4- | F,4 G,3 F, | E,2 D,2 C,4- | C,4 D,4 | D,3 E, F,4 | G,2 A,2 G,4 | C,4 F,4 | %27
w: sde- gno, di|_ vo- str'al-|me vir- tud'|_ e|gen- til- lez-||za, don-|
 E,2 D,2 C,2 B,,2 | A,,8 | F,,4 G,,2 A,,2 | B,,2 C,2 F,,2 F,2 | F,3 E, D,2 B,,2 | C,4 F,4 | %33
w: na non fia gia-|mai,|che giong' al|se- gno, che giong'|al _ _ se-|gno, et|
"^b" E,2 G,2 F,2 F,2 | G,4 C,2 E,2 | D,4 C,4 | z4 F,,4 | F,,2 G,,2 A,,2 B,,2 | C,2 D,2 E,2 F,2 | %39
w: io quan- ton- que'in-|de- * *|* gno:|por-|ro le vo- *|stre lod' in s'al-|
 G,4 D,4 | F,4 F,2 E,2 | D,3 C, B,,2 A,,2 | G,,2 F,,2 B,,4 | C,4 F,,4- | F,,4 F,4 | %45
w: * to,|ch'au- gel non|gion- ge- ra col|suo vo- la-|* to,|_ ch'au-|
 F,2 E,2 D,3 C, | B,,2 A,,2 G,,2 F,,2 | B,,4 C,4 | F,,8 |] %49
w: gel non gion- ge-|ra col suo vo-|la- *|to.|

